X: 10202
T: Edinburgh Review Waltz 2.
C: P. MILNE.
B: K\"ohler's Violin Repository, v.1, 1885 p.20 #2
F: http://www.archive.org/details/klersviolinrepos01edin
Z: 2011 John Chambers <jc:trillian.mit.edu>
M: 3/4
L: 1/8
K: F
|:\
(vc6 | =B2)c2d2 | c2(.F3.G) | A6 |\
(A6 | G2)A2B2 | d2(.c3.=B) | c6 |\
(c6 | =B2)c2d2 |
[1 c2(.F3.G) | A6 | (A4G2) | (E2G2B2) | (A4 G2) | F6 :|\
[2 c2A2F2 | f6 | (f2e3d) | d2(.c3.A) | A2(.A3.G) | F4z2 ||
|:\
vc2{d}c=Bcd | c2A2_B2 | (c2f3g) | a6 |\
b2(Bdfb) | a2(Acfb) | (g3fAd) |
c6 | c2{d}c=Bcd | c2A2_B2 | (c2f3g) |\
a6 | c'3(bag) | b3(agf) | a3(gfe) | f4z2 :|

%%sep 2 1 500

